X:123
%%pagewidth 9in
%%vocalfont Baskerville10Pro 15
T:How should I your true love know?
M:C
L:1/8
K:C
%%score 1 2
V:1 clef-treble
V:2 clef-bass octave=-1
V:1
E2|A2B2c2BA&E6E2|[D^G]2[CA]2[B,E]2E2|[Ec]3c[Gce]2[FBd]2|
w:And how should I your* true-love know From many an o-ther
w:*How should I||From an-o-ther
V:2
ED|C2G,2A,2C2|B,2A,2^G,4|A,4=G,2G,2|
V:1
[Ec]6c2|B2c2[DAd]2(cB)&F4x2[E^G]2|[EAe]2[DFA]2B,2CB,&x4E4|[A,A]2AB[EAc]2[D^GB]2|[CA]6||
w:one? O by his coc-kle* hat and staff, And* by his* san-dal shoon.
w:|By his||And his||
V:2
C8|D4F2ED|C2D2^G,2A,=G,|F,4E,2E,2|A,6||

